storage/app/icons/phosphoricons/duotone/kanban-duotone.svg

<svg xmlns="http://www.w3.org/2000/svg" fill="currentColor" viewBox="0 0 256 256"><path d="M216 56v64h-56V56ZM40 208a8 8 0 0 0 8 8h40a8 8 0 0 0 8-8v-88H40Z" opacity=".2"/><path d="M216 48H40a8 8 0 0 0-8 8v152a16 16 0 0 0 16 16h40a16 16 0 0 0 16-16v-48h48v16a16 16 0 0 0 16 16h40a16 16 0 0 0 16-16V56a8 8 0 0 0-8-8m-8 64h-40V64h40ZM88 64v48H48V64Zm0 144H48v-80h40Zm16-64V64h48v80Zm64 32v-48h40v48Z"/></svg>

<svg xmlns="http://www.w3.org/2000/svg" viewBox="0 0 256 256" fill="currentColor"><path d="M216,56v64H160V56ZM40,208a8,8,0,0,0,8,8H88a8,8,0,0,0,8-8V120H40Z" opacity="0.2"/><path d="M216,48H40a8,8,0,0,0-8,8V208a16,16,0,0,0,16,16H88a16,16,0,0,0,16-16V160h48v16a16,16,0,0,0,16,16h40a16,16,0,0,0,16-16V56A8,8,0,0,0,216,48Zm-8,64H168V64h40ZM88,64v48H48V64Zm0,144H48V128H88Zm16-64V64h48v80Zm64,32V128h40v48Z"/></svg>
